!!!!SEGMENT: pl-cz--i-37--003_jarocki-jozef-requiem-domine-jesu-christe.krn
!!!id: 18xx:848
!!!COM: Jarecki, Józef
!!!OTL: Requiem – Domine Jesu Christe
!!!PDT:
!!!SMS-siglum: PL-CZ
!!!SMS-shelfmark: I-37
!!!NIFC-rismID: 300000525
!!!URL-scan: http://repozytorium.nifc.pl/skany/pl-cz-nut--i-37
!!!ONB-nifc: UWAGA: części Requiem: Requiem, Dies irae, Domine Jesu Christe, Sanctus, Benedictus,
!!!SMS-variant:
!!!SMS-altvar:
**kern	**kern	**kern	**text	**kern	**kern	**text
*part5	*part4	*part3	*part3	*part2	*part1	*part1
*staff5	*staff4	*staff3	*staff3	*staff2	*staff1	*staff1
*I"Organo	*	*I"Basso	*	*I"Tenore II	*I"Tenore I	*
*I'org	*	*I'B	*	*I'T 2	*I'T 1	*
*clefF4	*clefG2	*clefF4	*	*clefG2	*clefG2	*
*k[]	*k[]	*k[]	*	*k[]	*k[]	*
*M3/4	*M3/4	*M3/4	*	*M3/4	*M3/4	*
=1	=1	=1	=1	=1	=1	=1
!	!	!	!	!	!LO:TX:a:t=Adagio	!
!	!	!	!	!	!LO:TX:a:t=Offertorium	!
4.C/	4.cc\ 4.ee\ 4.gg\	4.C/	.	4.ee\	4.gg\	Do-
8D/	8g\ 8b\ 8ff\	8D/	.	8b\	8ff\	-mi-
4E\	4g\ 4cc\ 4ee\	4E\	.	4cc\	4ee\	-ne
=2	=2	=2	=2	=2	=2	=2
*	*^	*	*	*	*	*
4F\	8ee/L	4a\	8F\	.	8a/	8ee\L	Je-
.	8dd/J	.	8F\	.	8a/	8dd\J	-su
4G\	4e/ 4g/ 4cc/	4rcyy	4G\	.	(4g/	(4cc\	Chri-
4GG/	4d/ 4g/ 4b/	4rcyy	4GG/	.	4f/)	4b\)	.
*	*v	*v	*	*	*	*	*
=3	=3	=3	=3	=3	=3	=3
4C/	4e/ 4g/ 4cc/	4C/	.	4e/	4cc\	-ste
8r	8r	4r	.	4r	4r	.
8G\L	8g/L	.	.	.	.	.
8E\	8g/ 8cc/	4r	.	4r	4r	.
8C\J	8g/J 8cc/ 8ee/	.	.	.	.	.
=4	=4	=4	=4	=4	=4	=4
*	*	*	*	*^	*	*
2GG/ 2G/	2g\ 2b\ 2dd\	4G\	.	2raayy	4b\	4dd\	rex
.	.	4G\	.	.	4b\	4dd\	glo-
4GG/ 4G/	4b\ 4dd\ 4gg\	4G\	.	4dd/	4b\	4gg\	-ri-
=5	=5	=5	=5	=5	=5	=5	=5
4C\ 4c\	4g\ 4cc\ 4ee\	4C/	.	4cc/	4g\	4ee\	-ae
8r	8r	4r	.	4r	4rcyy	4r	.
8G\L	8g/L	.	.	.	.	.	.
8E\	8g/ 8cc/	4r	.	4r	4rcyy	4r	.
8C\J	8g/J 8cc/ 8ee/	.	.	.	.	.	.
*	*	*	*	*v	*v	*	*
=6	=6	=6	=6	=6	=6	=6
2GG/ 2G/	2f/ 2g/ 2b/ 2dd/	4G\	.	4b\	4dd\	rex
.	.	4G\	.	4b\	4dd\	glo-
4GG/ 4G/	4f/ 4g/ 4b/ 4dd/	4G\	.	4b\	4dd\	-ri-
=7	=7	=7	=7	=7	=7	=7
4C/	4e/ 4g/ 4cc/	4C/	.	4cc\	4cc\	-ae
8r	8r	4r	.	4r	4r	.
8G\L	8g/L 8cc/	.	.	.	.	.
8E\	8g/ 8cc/	4r	.	4r	4r	.
8G\J	8g/J 8b/ 8dd/	.	.	.	.	.
=8	=8	=8	=8	=8	=8	=8
4.C/	2g\ 2cc\ 2ee\	4.C/	.	2g/	2ee\	Li-
8G\L	.	8G\	.	.	.	.
8E\	4g\ 4cc\ 4ee\	8E\	.	8g/	8ee\	-be-
8C\J	.	8C/	.	8g/	8ee\	-ra
=9	=9	=9	=9	=9	=9	=9
4G\	8.cc\L 8.ee\	8.G\	.	8.g/	8.ee\	a-
.	16b\Jk 16dd\	16G\	.	16g/	16ee\	-ni-
4GG/	16b\LL 16dd\	4G\	.	4g/	4dd\	-mas
.	16gg\	.	.	.	.	.
.	16gg\ 16bb\	.	.	.	.	.
.	16ff#X\JJ 16aa\	.	.	.	.	.
4G\	16ee\LL 16gg\	4r	.	4r	4r	.
.	16dd\ 16ff#\	.	.	.	.	.
.	16cc\ 16ee\	.	.	.	.	.
.	16b\JJ 16dd\	.	.	.	.	.
=10	=10	=10	=10	=10	=10	=10
!!linebreak:original
4.D\	4.d/ 4.f#X/ 4.cc/	4.D\	.	4.f#X/	4.cc\	om-
8E\L	8f#/L 8cc/	8E\	.	8g/	8cc\	-ni-
8F#X\	8f#/ 8cc/	8F#X\	.	8a/	8cc\	-um
8D\J	8f#/J 8cc/	8D\	.	8f#/	8cc\	fi-
=11	=11	=11	=11	=11	=11	=11
4G\	8.d/L 8.f#X/ 8.cc/	8.G\	.	8.g/	8.cc\	-de-
.	16d/Jk 16g/ 16b/	16G\	.	16g/	16cc\	-li-
4GG/	16d/LL 16g/ 16b/	4G\	.	4g/	4b\	-um
.	16b/ 16dd/	.	.	.	.	.
.	16cc/ 16ee/	.	.	.	.	.
.	16a/JJ 16cc/ 16ffn/	.	.	.	.	.
8r	16b/LL 16gg/	4r	.	4r	4r	.
.	16b/ 16dd/	.	.	.	.	.
8G\	16a/ 16cc/	.	.	.	.	.
.	16g/JJ 16b/	.	.	.	.	.
!!LO:LB:g=original
=12	=12	=12	=12	=12	=12	=12
2C\ 2c\	2e/ 2a/	2C/	.	2e/	2a/	de-
4BB\ 4B\	4e/ 4g#X/ 4b/	4BB/	.	4g#X/	4b/	-fun-
=13	=13	=13	=13	=13	=13	=13
2AA/ 2A/	8.a\L 8.cc\	4AA/	.	8.a/L	8.cc\L	-cto-
.	16b\Jk 16dd\	.	.	16b/Jk	16dd\Jk	.
.	4cc\ 4ee\	4AA/	.	4cc\	4ee\	-rum
4AA/ 4A/	4cc\ 4ee\	4AA/	.	4a/	4ee\	de
=14	=14	=14	=14	=14	=14	=14
4.AA/ 4.A/	4.cc\ 4.ee\	(4.AA/	.	(4.a/	(4.ee\	poe-
8BB/L	8b\L 8dd\	8BB/)	.	8g#X/)	8dd\)	.
8C/	8a\ 8cc\	8C/	.	8a/	8cc\	-nis
8C#X/J	8g\J 8b\	8C#X/	.	8gn/	8b\	in-
=15	=15	=15	=15	=15	=15	=15
*^	*	*	*	*	*	*
4DD/ 4D/	4rEEyy	4g/ 4b/	4D\	.	4g/	4b/	-fer-
8rc	8rEEyy	8f#X/L 8a/	4D\	.	4f#X/	4a/	-ni
!LO:SIC:s:o=:v:=8F#	!	!	!	!	!	!	!
8F/L	4DD\ 4D\	8f#/ 8a/ 8dd/	.	.	.	.	.
8A/	.	8f#/ 8a/ 8dd/	4r	.	4r	4r	.
8AA/J	8rEE	8e/J 8a/ 8cc#X/	.	.	.	.	.
*v	*v	*	*	*	*	*	*
=16	=16	=16	=16	=16	=16	=16
4DD/ 4D/	4f#X/ 4a/ 4dd/	4r	.	4r	4r	.
8DD/ 8D/	8d/L	8r	.	8r	8r	.
!	!	!LO:SIC:s:o=:v:=8F#	!	!LO:SIC:s:o=:v:=8f#	!	!
8r	8f#/ 8a/ 8dd/	8F\	.	8f/	8dd\	et
4r	8f#/ 8a/ 8dd/	8A\	.	8e/	8dd\	de
.	8e/J 8a/ 8cc#X/	8AA/	.	8e/	8cc#X\	pro-
=17	=17	=17	=17	=17	=17	=17
4r	4r	4D\	.	4f#X/	4dd\	-fun-
8r	8r	4D\	.	4f#/	4dd\	-do
8F#X\L	8f#X/L 8a/ 8dd/	.	.	.	.	.
8A\	8f#/ 8a/ 8dd/	4r	.	4r	4r	.
8AA\J	8e/J 8g/ 8a/ 8cc#X/	.	.	.	.	.
=18	=18	=18	=18	=18	=18	=18
4DD/ 4D/	4f#X/ 4a/ 4dd/	4D\	.	4f#X/	4dd\	la-
4DD/ 4D/	4f#/ 4a/ 4dd/	4D\	.	4f#/	4dd\	-cu
4r	4r	4r	.	4r	4r	.
=19	=19	=19	=19	=19	=19	=19
4GG/ 4G/	8r	4.G\	.	4.g/	4.b/	li-
*	*tremolo	*	*	*	*	*
.	8d/ 8g/ 8b/L	.	.	.	.	.
4r	8d/ 8g/ 8b/	.	.	.	.	.
.	8d/ 8g/ 8b/J	8G\	.	8g/	8b/	-be-
8D\L	8r	8D\L	.	(8g/L	(8b/L	-ra
8D#X\J	8c/ 8f#X/ 8a/	8D#X\J	.	8f#X/J)	8a/J)	.
=20	=20	=20	=20	=20	=20	=20
4E\	8r	4E\	.	(8f#X/L	(8a/L	e-
.	8B/ 8e/ 8g/L	.	.	8e/J)	8g/J)	.
4r	8B/ 8e/ 8g/	4E\	.	4e/	4g/	-as
.	8B/ 8e/ 8g/J	.	.	.	.	.
4BB/	4b\ 4dd\ 4ff#X\	4BB/	.	4g/	8gg\L	de
.	.	.	.	.	8ff#X\J	.
=21	=21	=21	=21	=21	=21	=21
!!linebreak:original
4C/	8r	4C/	.	4g/	(8ff#X\L	o-
.	8g\ 8cc\ 8ee\L	.	.	.	8ee\J)	.
4r	8g\ 8cc\ 8ee\	4c\	.	4g/	4ee\	-re
.	8g\ 8cc\ 8ee\J	.	.	.	.	.
*	*Xtremolo	*	*	*	*	*
4BB/	4d/ 4g/ 4dd/	4B\	.	4g/	4ee\	le-
=22	=22	=22	=22	=22	=22	=22
*	*^	*	*	*	*	*
4AA/ 4A/	8.dd/L	4d\ 4f#X\	4A\	.	4f#X/	8.dd\L	-o-
.	16cc/Jk	.	.	.	.	16cc\Jk	.
4GG/ 4G/	4d/ 4g/ 4b/	2rcyy	4G\	.	4g/	4b\	-nis
8GG/L	8b/L 8dd/	.	4r	.	4r	4r	.
8BB/J	8g/J 8b/	.	.	.	.	.	.
*	*v	*v	*	*	*	*	*
=23	=23	=23	=23	=23	=23	=23
*tremolo	*	*	*	*	*	*
8C/L	2e/ 2a/	2C/	.	2e/	2a/	ne
8C/	.	.	.	.	.	.
8C/	.	.	.	.	.	.
8C/J	.	.	.	.	.	.
8D\L	4B/ 4f/ 4g#X/	4D/	.	4fn/	4g#X/	ab-
8D\J	.	.	.	.	.	.
*Xtremolo	*	*	*	*	*	*
=24	=24	=24	=24	=24	=24	=24
8.C/L	8.e/L 8.a/	8.C/	.	8e/	8.a/	-sor-
.	.	.	.	8g#X/	.	.
16BB/Jk	16e/Jk 16g#X/ 16b/	16BB/	.	.	16b/	-be-
!	!	!	!	!	!LO:N:vis=8	!
4AA/	4e/ 4a/ 4cc/	4AA/	.	4a/	4cc\	-at
8F\L 8A\	8e/L 8a/ 8cc/	8AA/	.	8a/	8cc\	e-
8E\J	8e/J 8g#/ 8b/	8E\	.	8g#/	8b\	-as
=25	=25	=25	=25	=25	=25	=25
8.AA\L 8.A\	8.e/L 8.b/ 8.dd/	8.A\	.	8.b/	8.dd\	tar-
16AA\Jk 16A\	16e/Jk 16a/ 16cc/	16A\	.	16a/	16cc\	-ta-
4AA\ 4A\	4e/	4A\	.	4a/	4cc\	-rus
4r	4r	4r	.	4r	4r	.
=26	=26	=26	=26	=26	=26	=26
2F#X\	2d/ 2a/ 2cc/	4F#X\	.	4a/	4cc\	ne
.	.	4F#\	.	4a/	4cc\	ca-
4F#\	4d/ 4a/ 4cc/	4F#\	.	4a/	4cc\	-dant
!!LO:LB:g=original
=27	=27	=27	=27	=27	=27	=27
8G\L	2d/ 2g/ 2b/	(4G\	.	2gn/	2b\	in
8GG\	.	.	.	.	.	.
8G\	.	8G\L	.	.	.	.
8A\	.	8A\J)	.	.	.	.
8G\	4d/ 4g/ 4b/	8G\L	.	4g/	4b\	ob-
8Fn\J	.	8Fn\J	.	.	.	.
=28	=28	=28	=28	=28	=28	=28
4.E\	4.e/ 4.g/ 4.cc/	4.E\	.	4.g/	4cc\	-scu-
.	.	.	.	.	8cc\	-rum
8E\L	8e/L 8g/ 8cc/	8E\	.	8g/	(8cc\L	sed
8D\	8g/ 8b/ 8dd/	8D\	.	8g/	8dd\J)	.
!	!	!LO:TX:b:t=c	!	!	!	!
8C\J	8g/J 8cc/ 8ee/	8C\	.	8g/	8ee\	si-
=29	=29	=29	=29	=29	=29	=29
2BB/	2g\ 2dd\ 2ff\	4.BB/	.	4.g/	4.ff\	-gni-
.	.	8BB/	.	8g/	8ff\	-fer
8C/L	4g\ 4cc\ 4ee\	8C/	.	8g/	8ee\	sanc-
8E/J	.	8E/	.	8cc\	8ee\	-tus
=30	=30	=30	=30	=30	=30	=30
8G/L	8.g/L 8.cc/ 8.ee/	8.G\	Mi-	8.cc\	8.ee\	Mi-
8GG/J	.	.	.	.	.	.
.	16g/Jk 16b/ 16dd/	16G\	-cha-	16b\	16dd\	-cha-
4GG/ 4G/	4g/	8G\	-el	4b\	4dd\	-el
.	.	4G\	re-	.	.	.
4GG/ 4G/	4r	.	.	4r	4r	.
.	.	8G\	-prae-	.	.	.
=31	=31	=31	=31	=31	=31	=31
4GG/ 4G/	4r	4G\	-sen-	4r	4r	.
8GG\L 8G\	8r	8G\	-tet	8r	8r	.
!	!	!	!	!	!LO:SIC:o:s=:v:-prae-	!
!	!	!	!	!	!LO:N:vis=4	!
8c\	8e/L 8g/ 8cc/	8C/	prae-	8g/	8cc\	pre-
8B\	8g/ 8dd/ 8ff/	8BB/	-sen-	8g/	8ff\	-sen-
8c\J	8g/J 8cc/ 8ee/	8C/	-tet	8g/	8ee\	-tet
=32	=32	=32	=32	=32	=32	=32
4G\	4g/ 4cc/ 4ee/	4G\	.	4cc\	4ee\	e-
8GG/	8g/L 8b/ 8dd/	8G\	.	8b\	8dd\	-as
8GG/L 8G/	8e/ 8g/ 8cc/	8G\	.	8cc\	8cc\	in
8GG/J 8G/	8d/ 8g/ 8b/	8G\	.	8dd\	8b\	lu-
8GG/ 8G/	8e/J 8g/ 8cc/	8G\	.	8cc\	8cc\	-cem
=33	=33	=33	=33	=33	=33	=33
4GG/ 4G/	4e/ 4g/ 4cc/	4G\	.	4cc\	4cc\	sanc-
4GG/ 4G/	4d/ 4g/ 4b/	4GG/	.	4g/	4b\	-tam
4r	4r	4r	.	4r	4r	.
=34	=34	=34	=34	=34	=34	=34
*	*^	*	*	*	*	*
!!pagebreak:original
2E\ 2c\	4cc/	2g\	4E\	.	4g/	4cc\	quam
.	4ee/	.	4E\	.	4g/	4ee\	o-
4E\ 4c\	4gg/	4b-X\	4E\	.	4b-X/	4gg\	-lim
=35	=35	=35	=35	=35	=35	=35	=35
*^	*	*	*	*	*	*	*
!	!	!	!	!	!	!LO:SIC:o:s=:v:starte dźwięki "d"	!LO:SIC:o:s=:v:starte dźwięki "a"	!
!	!	!	!	!	!	!LO:TX:b:t=a	!LO:TX:a:t=g	!
4.c/	2F\	4.gg/	2a\	4.F\	.	4.a\	4.gg/	A-
!	!	!	!	!	!	!LO:TX:b:t=a	!LO:TX:a:t=e	!
8c#X/	.	8ee/	.	8F\	.	8a\	8ee/	-bra-
!	!	!	!	!	!	!LO:TX:b:t=a	!LO:TX:a:t=f	!
4d/	4F\	4ff/	4a\	4F\	.	4a\	4ff/	-hae
*v	*v	*	*	*	*	*	*	*
=36	=36	=36	=36	=36	=36	=36	=36
2.GG\ 2.G\	4dd/	4bn\	2G\	.	(4bn\	(4dd\	pro-
.	4ee/	4cc\	.	.	4cc\)	4ee\)	.
.	4ff/	4dd\	4G\	.	4dd\	4ff\	-mi-
*	*v	*v	*	*	*	*	*
=37	=37	=37	=37	=37	=37	=37
4c\	4dd\ 4ff\	4C/	.	4dd\	4ff\	-sis-
8C\L	8cc/L 8ee/	4C/	.	4cc\	4ee\	-ti
8c\	8cc/	.	.	.	.	.
8G\	8g/	4r	.	4r	4r	.
8E\J	8e/J	.	.	.	.	.
=38	=38	=38	=38	=38	=38	=38
*	*^	*	*	*	*	*
2C\ 2c\	4cc/	2g\	4E\	.	4g/	4g/ 4cc/	et
!	!	!	!	!	!	!LO:SIC:s:o=:v:se-	!
.	4ee/	.	4E\	.	4g/	4g/ 4ee/	sae-
4C\ 4c\	4gg/	4b-X\	8E\	.	8b-X/	8b-X/ 8gg/	-mi-
.	.	.	8E\	.	8b-/	8b-/ 8gg/	-ni
=39	=39	=39	=39	=39	=39	=39	=39
*^	*	*	*	*	*	*	*
4.c/	2F\	4.gg/	2a\	2F\	.	2a/	(4.gg\	e-
8c#X/	.	8ee/	.	.	.	.	8ee\)	.
4d/	4F\	4ff/	4a\	4F\	.	4a/	4ff\	-jus
*v	*v	*	*	*	*	*	*	*
*	*v	*v	*	*	*	*	*
=40	=40	=40	=40	=40	=40	=40
2G\	2g\ 2cc\ 2ee\	2G\	.	(2cc\	(2ee\	e-
4GG/	4g\ 4b\ 4dd\	4GG/	.	4bn\)	4dd\)	.
=41	=41	=41	=41	=41	=41	=41
4C/	4e/ 4g/ 4cc/	4C/	.	4cc\	4cc\	-jus
4r	4r	4r	.	4r	4r	.
4r	4r	4r	.	4r	4r	.
!LO:TX:b:t=V.S.	!	!	!	!	!	!
!!LO:LB:g=original
=42	=42	=42	=42	=42	=42	=42
2.r	2.r	4GG/	.	4b\	4dd\	et
.	.	4GG/	.	4b\	4dd\	se-
.	.	4GG/	.	4b\	4dd\	-mi-
=43	=43	=43	=43	=43	=43	=43
4r	4r	4C/	.	4g/	4ee\	-ni
8r	8r	4r	.	4r	4r	.
8G\L	8g\L	.	.	.	.	.
8E\	8g\ 8cc\	4r	.	4r	4r	.
8C\J	8g\J 8cc\ 8ee\	.	.	.	.	.
=44	=44	=44	=44	=44	=44	=44
*	*	*	*	*^	*	*
4GG/ 4G/	4b\ 4dd\ 4gg\	2.G\	.	2.dd/	2.b\	2.gg\	e-
4r	4r	.	.	.	.	.	.
4GG/ 4G/	4b\ 4dd\ 4gg\	.	.	.	.	.	.
*	*	*	*	*v	*v	*	*
=45	=45	=45	=45	=45	=45	=45
4C\ 4c\	4e/ 4g/ 4cc/	4C/	.	4cc\	4cc\	-jus
4C\ 4G\	4c/ 4e/	4r	.	4r	4r	.
4C\ 4G\	4c/ 4e/	4r	.	4r	4r	.
=46	=46	=46	=46	=46	=46	=46
2.C\ 2.E\ 2.G\	2.c/	2.r	.	2.r	2.r	.
==	==	==	==	==	==	==
*-	*-	*-	*-	*-	*-	*-
!!!system-decoration: [(s1,s2,s3)][(s4,s5)]
!!!RDF**kern: > = above
!!!RDF**kern: < = below
!!!ENC: Marta Chmielewska
!!!END: 2020-07-22
!!!EED: Leszek Kubiak
!!!EST: 2020-09-24
